X:750
T:Elofabiten
R:Polka
Z:Patrik Månsson, 2008-11-17
O:Farstorp, Skåne
S:efter Elof Lindahl
N:Upptecknad av Ragnar Carlsson, Högahult, Farstorp. Inspelad på CDn som följer med "[[!Göinge Musickanter]]. Det spelar en göing", 2002, ISBN 91-631-3024-6
M:2/4
L:1/16
Q:1/4=100
K:F

|: C2CF A3F | F2E2 EGC2 | C2B2 BGE2 | F2c2 cAF2 | 
   C2CF A3F | F2E2 EGC2 | C2B2 BGE2 | F2F2 F4 :|
|: d2B2 BFBd | c2F2 A4 | C2EG BGEG | F2A2 c4 |
   d2B2 BFBd | c2F2 A4 | C2EG BGEG | F2F2 F4 :|


(:musicend:)

Takterna stämmer inte riktigt. Den som vet hur det ska vara är välkommen att rätta till. /Patrik
(:music:)
